common/src/main/resources/icons/plugins/markdown/Menu_misc.svg

<svg xmlns="http://www.w3.org/2000/svg" width="16" height="16" fill="#A1887F" data-big="true" viewBox="0 0 24 24"><path d="M12 2a10 10 0 0 1 10 10 10 10 0 0 1-10 10A10 10 0 0 1 2 12 10 10 0 0 1 12 2m0 8.5a1.5 1.5 0 0 0-1.5 1.5 1.5 1.5 0 0 0 1.5 1.5 1.5 1.5 0 0 0 1.5-1.5 1.5 1.5 0 0 0-1.5-1.5m-5.5 0A1.5 1.5 0 0 0 5 12a1.5 1.5 0 0 0 1.5 1.5A1.5 1.5 0 0 0 8 12a1.5 1.5 0 0 0-1.5-1.5m11 0A1.5 1.5 0 0 0 16 12a1.5 1.5 0 0 0 1.5 1.5A1.5 1.5 0 0 0 19 12a1.5 1.5 0 0 0-1.5-1.5"/></svg>

<!--
  - The MIT License (MIT)
  -
  - Copyright (c) 2015-2024 Elior "Mallowigi" Boukhobza
  -
  - Permission is hereby granted, free of charge, to any person obtaining a copy
  - of this software and associated documentation files (the "Software"), to deal
  - in the Software without restriction, including without limitation the rights
  - to use, copy, modify, merge, publish, distribute, sublicense, and/or sell
  - copies of the Software, and to permit persons to whom the Software is
  - furnished to do so, subject to the following conditions:
  -
  - The above copyright notice and this permission notice shall be included in all
  - copies or substantial portions of the Software.
  -
  - THE SOFTWARE IS PROVIDED "AS IS", WITHOUT WARRANTY OF ANY KIND, EXPRESS OR
  - IMPLIED, INCLUDING BUT NOT LIMITED TO THE WARRANTIES OF MERCHANTABILITY,
  - FITNESS FOR A PARTICULAR PURPOSE AND NONINFRINGEMENT. IN NO EVENT SHALL THE
  - AUTHORS OR COPYRIGHT HOLDERS BE LIABLE FOR ANY CLAIM, DAMAGES OR OTHER
  - LIABILITY, WHETHER IN AN ACTION OF CONTRACT, TORT OR OTHERWISE, ARISING FROM,
  - OUT OF OR IN CONNECTION WITH THE SOFTWARE OR THE USE OR OTHER DEALINGS IN THE
  - SOFTWARE.
  -->


<svg data-big="true" xmlns="http://www.w3.org/2000/svg" fill="#A1887F" version="1.1" width="16px" height="16px"
     viewBox="0 0 24 24">
  <path
    d="M12,2A10,10 0 0,1 22,12A10,10 0 0,1 12,22A10,10 0 0,1 2,12A10,10 0 0,1 12,2M12,10.5A1.5,1.5 0 0,0 10.5,12A1.5,1.5 0 0,0 12,13.5A1.5,1.5 0 0,0 13.5,12A1.5,1.5 0 0,0 12,10.5M6.5,10.5A1.5,1.5 0 0,0 5,12A1.5,1.5 0 0,0 6.5,13.5A1.5,1.5 0 0,0 8,12A1.5,1.5 0 0,0 6.5,10.5M17.5,10.5A1.5,1.5 0 0,0 16,12A1.5,1.5 0 0,0 17.5,13.5A1.5,1.5 0 0,0 19,12A1.5,1.5 0 0,0 17.5,10.5Z"/>
</svg>
